svgs/sharp-solid/bring-forward.svg

<svg xmlns="http://www.w3.org/2000/svg" viewBox="0 0 512 512"><!--! Font Awesome Pro 6.6.0 by @fontawesome - https://fontawesome.com License - https://fontawesome.com/license (Commercial License) Copyright 2024 Fonticons, Inc. --><path d="M224 448l224 0 0-224-64 0 0-64 64 0 64 0 0 64 0 224 0 64-64 0-224 0-64 0 0-64 0-64 64 0 0 64zM0 352L0 0 352 0l0 352L0 352z"/></svg>

<svg xmlns="http://www.w3.org/2000/svg" viewBox="0 0 512 512"><!--! Font Awesome Pro 6.4.2 by @fontawesome - https://fontawesome.com License - https://fontawesome.com/license (Commercial License) Copyright 2023 Fonticons, Inc. --><path d="M224 448H448V224H384V160h64 64v64V448v64H448 224 160V448 384h64v64zM0 352V0H352V352H0z"/></svg>
